X: 37041
T: Silver Hand, The
R: jig
M: 6/8
K: Gmajor
E3{A}EDE|FGG {A}GFE|~F3{A}FED|FGF FED|
{D}E3{A}EDE|~G3{A}GFE|FGF FED|FED ~E3:|
~E3 B3|Bdd BAG|ABA AGF|ABA AGF|
~E3 B2B|Bcc BAG|ABA AGF|GFE FED:|

